static/images/pieces/mansindam/tomato/bb.svg

<svg height="52.157" width="52.157" xmlns="http://www.w3.org/2000/svg"><path d="m26.078001 48.76 13.673-4.484 6.418-40.907h-40.1810002l6.4190002 40.907z" fill="#ede9dd" opacity=".9801" stroke="#393830" stroke-opacity=".992157" stroke-width="1.04769"/><g style="fill-rule:evenodd;stroke:#000;stroke-width:1.5;stroke-linecap:round;stroke-linejoin:round;fill:#3d3c33" transform="matrix(-1 0 0 -1 48.578492 46.424982)"><g stroke="#3d3c33" stroke-linecap="butt"><path d="m9 36c3.39-.97 10.11.43 13.5-2 3.39 2.43 10.11 1.03 13.5 2 0 0 1.65.54 3 2-.68.97-1.65.99-3 .5-3.39-.97-10.11.46-13.5-1-3.39 1.46-10.11.03-13.5 1-1.354.49-2.323.47-3-.5 1.354-1.94 3-2 3-2z"/><path d="m15 32c2.5 2.5 12.5 2.5 15 0 .5-1.5 0-2 0-2 0-2.5-2.5-4-2.5-4 5.5-1.5 6-11.5-5-15.5-11 4-10.5 14-5 15.5 0 0-2.5 1.5-2.5 4 0 0-.5.5 0 2z"/><path d="m25 8a2.5 2.5 0 1 1 -5 0 2.5 2.5 0 1 1 5 0z"/></g><path d="m17.5 26h10m-12.5 4h15m-7.5-14.5v5m-2.5-2.5h5" stroke="#ede9dd" stroke-linejoin="miter"/></g></svg>

<?xml version="1.0" encoding="UTF-8" standalone="no"?>
<svg
   width="52.157"
   height="52.157"
   version="1.1"
   id="svg10503"
   sodipodi:docname="Bishop DOWN.svg"
   inkscape:version="1.3 (0e150ed6c4, 2023-07-21)"
   xmlns:inkscape="http://www.inkscape.org/namespaces/inkscape"
   xmlns:sodipodi="http://sodipodi.sourceforge.net/DTD/sodipodi-0.dtd"
   xmlns="http://www.w3.org/2000/svg"
   xmlns:svg="http://www.w3.org/2000/svg"
   xmlns:rdf="http://www.w3.org/1999/02/22-rdf-syntax-ns#"
   xmlns:cc="http://creativecommons.org/ns#"
   xmlns:dc="http://purl.org/dc/elements/1.1/">
  <metadata
     id="metadata10509">
    <rdf:RDF>
      <cc:Work
         rdf:about="">
        <dc:format>image/svg+xml</dc:format>
        <dc:type
           rdf:resource="http://purl.org/dc/dcmitype/StillImage" />
      </cc:Work>
    </rdf:RDF>
  </metadata>
  <defs
     id="defs10507" />
  <sodipodi:namedview
     pagecolor="#ffffff"
     bordercolor="#666666"
     borderopacity="1"
     objecttolerance="10"
     gridtolerance="10"
     guidetolerance="10"
     inkscape:pageopacity="0"
     inkscape:pageshadow="2"
     inkscape:window-width="3840"
     inkscape:window-height="2036"
     id="namedview10505"
     showgrid="false"
     inkscape:zoom="6.8328662"
     inkscape:cx="88.908517"
     inkscape:cy="-39.149018"
     inkscape:window-x="-12"
     inkscape:window-y="-12"
     inkscape:window-maximized="1"
     inkscape:current-layer="svg10503"
     inkscape:showpageshadow="2"
     inkscape:pagecheckerboard="0"
     inkscape:deskcolor="#d1d1d1" />
  <path
     d="m 26.078001,48.76 13.673,-4.484 6.418,-40.907 H 5.9880008 l 6.4190002,40.907 z"
     opacity="0.9801"
     fill="#fee572"
     fill-opacity=".992"
     stroke="#000000"
     stroke-width="1.04769"
     id="path10471"
     style="fill:#ede9dd;fill-opacity:1;stroke:#393830;stroke-opacity:0.992157" />
  <g
     fill="none"
     fill-rule="evenodd"
     stroke="#000000"
     stroke-width="1.5"
     stroke-linecap="round"
     stroke-linejoin="round"
     id="g4"
     transform="rotate(-180,24.289246,23.212491)"
     style="fill:#3d3c33;fill-opacity:1">
    <g
       fill="#000000"
       stroke-linecap="butt"
       id="g3"
       style="fill:#3d3c33;fill-opacity:1">
      <path
         d="m 9,36 c 3.39,-0.97 10.11,0.43 13.5,-2 3.39,2.43 10.11,1.03 13.5,2 0,0 1.65,0.54 3,2 -0.68,0.97 -1.65,0.99 -3,0.5 -3.39,-0.97 -10.11,0.46 -13.5,-1 C 19.11,38.96 12.39,37.53 9,38.5 7.646,38.99 6.677,38.97 6,38 7.354,36.06 9,36 9,36 Z"
         id="path1"
         style="fill:#3d3c33;fill-opacity:1;stroke:#3d3c33;stroke-opacity:1" />
      <path
         d="m 15,32 c 2.5,2.5 12.5,2.5 15,0 0.5,-1.5 0,-2 0,-2 0,-2.5 -2.5,-4 -2.5,-4 5.5,-1.5 6,-11.5 -5,-15.5 -11,4 -10.5,14 -5,15.5 0,0 -2.5,1.5 -2.5,4 0,0 -0.5,0.5 0,2 z"
         id="path2"
         style="fill:#3d3c33;fill-opacity:1;stroke:#3d3c33;stroke-opacity:1" />
      <path
         d="m 25,8 a 2.5,2.5 0 1 1 -5,0 2.5,2.5 0 1 1 5,0 z"
         id="path3"
         style="fill:#3d3c33;fill-opacity:1;stroke:#3d3c33;stroke-opacity:1" />
    </g>
    <path
       d="m 17.5,26 h 10 M 15,30 H 30 M 22.5,15.5 v 5 M 20,18 h 5"
       stroke="#ececec"
       stroke-linejoin="miter"
       id="path4"
       style="fill:#3d3c33;fill-opacity:1;stroke:#ede9dd;stroke-opacity:1" />
  </g>
</svg>
